logo/maestro.svg

<svg xmlns="http://www.w3.org/2000/svg" fill="none" viewBox="0 0 780 500"><path fill="#7673C0" d="M465.769 113.811H314.195v272.4h151.574v-272.4Z"/><path fill="#EB001B" d="M323.822 250.033c-.028-26.237 5.914-52.138 17.377-75.739 11.463-23.601 28.147-44.285 48.786-60.485-25.555-20.0835-56.245-32.5724-88.563-36.039-32.317-3.4667-64.958 2.2286-94.191 16.4352-29.234 14.2068-53.881 36.3508-71.124 63.9028-17.244 27.552-26.388 59.399-26.388 91.901 0 32.503 9.144 64.35 26.388 91.902 17.243 27.551 41.89 49.696 71.124 63.903 29.233 14.206 61.874 19.901 94.191 16.435 32.318-3.467 63.008-15.956 88.563-36.039-20.633-16.195-37.312-36.871-48.775-60.464-11.463-23.592-17.409-49.483-17.388-75.713Z"/><path fill="#00A1DF" d="M670.228 250.034c-.008 32.497-9.156 64.336-26.401 91.88-17.244 27.545-41.888 49.683-71.117 63.886-29.228 14.202-61.863 19.897-94.174 16.433-32.312-3.464-62.998-15.947-88.552-36.023 20.625-16.209 37.3-36.89 48.766-60.484 11.466-23.594 17.423-49.483 17.423-75.716 0-26.232-5.957-52.122-17.423-75.715-11.466-23.594-28.141-44.276-48.766-60.485 25.554-20.0898 56.244-32.5847 88.563-36.0564 32.32-3.4716 64.964 2.2201 94.201 16.4247 29.237 14.2047 53.888 36.3487 71.135 63.9007 17.246 27.553 26.392 59.402 26.393 91.907l-.048.048Z"/></svg>

<svg width="780" height="500" viewBox="0 0 780 500" fill="none" xmlns="http://www.w3.org/2000/svg">
<path d="M465.769 113.811H314.195V386.211H465.769V113.811Z" fill="#7673C0"/>
<path d="M323.822 250.033C323.794 223.796 329.736 197.895 341.199 174.294C352.662 150.693 369.346 130.009 389.985 113.809C364.43 93.7255 333.74 81.2366 301.422 77.77C269.105 74.3033 236.464 79.9986 207.231 94.2052C177.997 108.412 153.35 130.556 136.107 158.108C118.863 185.66 109.719 217.507 109.719 250.009C109.719 282.512 118.863 314.359 136.107 341.911C153.35 369.462 177.997 391.607 207.231 405.814C236.464 420.02 269.105 425.715 301.422 422.249C333.74 418.782 364.43 406.293 389.985 386.21C369.352 370.015 352.673 349.339 341.21 325.746C329.747 302.154 323.801 276.263 323.822 250.033Z" fill="#EB001B"/>
<path d="M670.228 250.034C670.22 282.531 661.072 314.37 643.827 341.914C626.583 369.459 601.939 391.597 572.71 405.8C543.482 420.002 510.847 425.697 478.536 422.233C446.224 418.769 415.538 406.286 389.984 386.21C410.609 370.001 427.284 349.32 438.75 325.726C450.216 302.132 456.173 276.243 456.173 250.01C456.173 223.778 450.216 197.888 438.75 174.295C427.284 150.701 410.609 130.019 389.984 113.81C415.538 93.7202 446.228 81.2253 478.547 77.7536C510.867 74.282 543.511 79.9737 572.748 94.1783C601.985 108.383 626.636 130.527 643.883 158.079C661.129 185.632 670.275 217.481 670.276 249.986L670.228 250.034Z" fill="#00A1DF"/>
</svg>
